svg/table_row.svg

<svg xmlns="http://www.w3.org/2000/svg" viewBox="0 0 24 24"><path d="M22 14a2 2 0 0 1-2 2H4a2 2 0 0 1-2-2v-4a2 2 0 0 1 2-2h16a2 2 0 0 1 2 2zM4 14h4v-4H4zm6 0h4v-4h-4zm6 0h4v-4h-4z"/></svg>

<?xml version="1.0" encoding="UTF-8"?><!DOCTYPE svg PUBLIC "-//W3C//DTD SVG 1.1//EN" "http://www.w3.org/Graphics/SVG/1.1/DTD/svg11.dtd"><svg xmlns="http://www.w3.org/2000/svg" xmlns:xlink="http://www.w3.org/1999/xlink" version="1.1" id="mdi-table-row" width="24" height="24" viewBox="0 0 24 24"><path d="M22,14A2,2 0 0,1 20,16H4A2,2 0 0,1 2,14V10A2,2 0 0,1 4,8H20A2,2 0 0,1 22,10V14M4,14H8V10H4V14M10,14H14V10H10V14M16,14H20V10H16V14Z" /></svg>
